!!!!SEGMENT: Wil1006e-Missa_Osculetur_me-Agnus
!!!id: Wil1006e
!!!AGN: Mass; Agnus
!!!voices: 2-5
!!!OPR: Missa Osculetur me
!!!COM: Adrian Willaert
!!!OTL: Agnus
**kern	**kern	**kern	**kern	**kern
*part5	*part4	*part3	*part2	*part1
*staff5	*staff4	*staff3	*staff2	*staff1
*I"Bassus	*I"Tenor II	*I"Tenor I	*I"Altus	*I"Superius
*I'B	*I'T. II	*I'T. I	*I'A	*I'S
*clefF4	*clefGv2	*clefGv2	*clefG2	*clefG2
*k[b-]	*k[b-]	*k[b-]	*k[b-]	*k[b-]
*F:	*F:	*F:	*F:	*F:
*M2/1	*M2/1	*M2/1	*M2/1	*M2/1
*met(C|)	*met(C|)	*met(C|)	*met(C|)	*met(C|)
=1	=1	=1	=1	=1
!!section: Agnus Dei I
!!!OMD: Agnus Dei I
0r	0r	0r	1.f	1r
.	.	.	.	1cc
.	.	.	2f	.
=2	=2	=2	=2	=2
0r	0r	0r	1a	2cc
.	.	.	.	2cc
.	.	.	2g	1dd
.	.	.	[2f	.
=3	=3	=3	=3	=3
0r	0r	0r	2f]	1.cc
.	.	.	4e	.
.	.	.	4d	.
.	.	.	2c	.
.	.	.	[2f	4b-y
.	.	.	.	4a
=4	=4	=4	=4	=4
1r	0r	0r	2f]	1g
.	.	.	2e	.
[1F	.	.	2f	[1cc
.	.	.	[2a	.
=5	=5	=5	=5	=5
2F]	0r	1.c	2a]	1cc]
2F	.	.	4g	.
.	.	.	4f	.
1A	.	.	1e	1r
.	.	2c	.	.
=6	=6	=6	=6	=6
2G	0r	1d	2r	0r
1F	.	.	1a	.
.	.	[1c	.	.
4E	.	.	4g	.
4D	.	.	4f	.
=7	=7	=7	=7	=7
2C	0r	2c]	2g	0r
1F	.	4B-y	2a	.
.	.	4A	.	.
.	.	1G	1b-y	.
2E	.	.	.	.
=8	=8	=8	=8	=8
1.F	0r	2r	2.a	1r
.	.	1A	.	.
.	.	.	4g	.
.	.	.	1f	1cc
4E	.	4G	.	.
4D	.	4F	.	.
=9	=9	=9	=9	=9
1C	0r	2G	1e	2cc
.	.	2A	.	2cc
1BB-y	.	1B-y	2r	1dd
.	.	.	2f	.
=10	=10	=10	=10	=10
1F	0r	2.A	1.f	1.cc
.	.	4G	.	.
1F	.	4A	.	.
.	.	4F	.	.
.	.	[2f	2f	4b-y
.	.	.	.	4a
=11	=11	=11	=11	=11
1G	0r	2f]	1b-y	1g
.	.	2e	.	.
2.F	.	2f	2.a	2r
.	.	[2F	.	2cc
4G	.	.	4g	.
=12	=12	=12	=12	=12
2A	0r	4F]	4f	1.cc
.	.	4G	4e	.
4F	.	4A	1f	.
4G	.	4B-y	.	.
4A	.	1c	.	.
4B-y	.	.	.	.
[2c	.	.	2e	2cc
=13	=13	=13	=13	=13
2c]	0r	1r	1d	1ff
2BnXi	.	.	.	.
1c	.	2r	2.c	2.ee
.	.	[2c	.	.
.	.	.	4d	4dd
=14	=14	=14	=14	=14
0r	0r	4c]	2e	4cc
.	.	4d	.	4b-y
.	.	4e	4c	1cc
.	.	4f	4d	.
.	.	2g	4e	.
.	.	.	4f	.
.	.	2G	[2g	2b-y
=15	=15	=15	=15	=15
1r	0r	2c	2g]	1a
.	.	2d	2f#i	.
[1c	.	2e	[1g	1g
.	.	4c	.	.
.	.	4d	.	.
=16	=16	=16	=16	=16
2c]	0r	4e	2g]	1cc
.	.	4f	.	.
2c	.	1g	4f	.
.	.	.	4e	.
1d	.	.	2f	2a
.	.	2f	2d	2b-y
=17	=17	=17	=17	=17
1.c	0r	2g	2e	2cc
.	.	1e	2g	4b-y
.	.	.	.	4a
.	.	.	2e	2g
4B-y	.	4d	2f	[2cc
4A	.	4c	.	.
=18	=18	=18	=18	=18
1G	0r	1d	2.g	2cc]
.	.	.	.	2bnXi
.	.	.	4f	.
2r	.	1c	2e	2.cc
2F	.	.	2f	.
.	.	.	.	8b-yL
.	.	.	.	8aJ
=19	=19	=19	=19	=19
2G	0r	0r	2d	2b-y
2F	.	.	1f	1a
1B-y	.	.	.	.
.	.	.	4e	2g
.	.	.	4d	.
=20	=20	=20	=20	=20
1A	0r	2r	2f	[0a
.	.	2c	2e	.
[1F	.	2d	2.f	.
.	.	2c	.	.
.	.	.	4e	.
=21	=21	=21	=21	=21
1F]	0r	1f	0c	1a]
2r	.	1e	.	1g
2c	.	.	.	.
=22	=22	=22	=22	=22
2A	0r	1c	0r	0r
2F	.	.	.	.
1B-y	.	2.d	.	.
.	.	4e	.	.
=23	=23	=23	=23	=23
2.A	0r	2f	0r	2r
.	.	2e	.	2cc
4G	.	.	.	.
2F	.	2d	.	2dd
2E	.	[2c	.	2ee
=24	=24	=24	=24	=24
1D	0r	2c]	1r	1ff
.	.	2BnXi	.	.
1C	.	2.c	2r	1ee
.	.	.	2g	.
.	.	4B-y	.	.
=25	=25	=25	=25	=25
0r	0r	1A	2a	1cc
.	.	.	2f	.
.	.	1G	1b-y	2.dd
.	.	.	.	4ee
=26	=26	=26	=26	=26
0r	0r	0r	2.a	2ff
.	.	.	.	2ee
.	.	.	4g	.
.	.	.	2f	2dd
.	.	.	2e	[2cc
=27	=27	=27	=27	=27
2r	0r	1r	1d	2cc]
2G	.	.	.	2bnXi
2A	.	2r	2c	1cc
2F	.	2c	2f	.
=28	=28	=28	=28	=28
1B-y	0r	2d	2g	1r
.	.	2.f	2f	.
1G	.	.	1b-y	2r
.	.	4e	.	.
.	.	4e	.	2g
.	.	8dL	.	.
.	.	8eJ	.	.
=29	=29	=29	=29	=29
2.F	0r	2f	1a	2a
.	.	2g	.	1cc
4E	.	.	.	.
1D	.	2d	1f	.
.	.	[2f	.	2bnXi
=30	=30	=30	=30	=30
2C	0r	2f]	2.g	1cc
2c	.	2e	.	.
.	.	.	4a	.
2.d	.	2.f	2b-y	2r
.	.	.	2a	2f
4c	.	4e	.	.
=31	=31	=31	=31	=31
2B-y	0r	2d	2g	2g
2A	.	2c	1f	2a
1G	.	2d	.	1b-y
.	.	2B-y	2e	.
=32	=32	=32	=32	=32
0F	0r	1c	1f	2.a
.	.	.	.	4b-y
.	.	[1A	2r	1cc
.	.	.	2f	.
=33	=33	=33	=33	=33
0r	0r	0A_	2e	2r
.	.	.	1f	2cc
.	.	.	.	2a
.	.	.	4e	[2cc
.	.	.	4d	.
=34	=34	=34	=34	=34
2r	0r	1A]	2c	4cc]
.	.	.	.	4b-y
2F	.	.	2.f	4a
.	.	.	.	4g
2D	.	2r	.	2f
.	.	.	4e	.
[2G	.	2G	4d	[2b-y
.	.	.	4c	.
=35	=35	=35	=35	=35
4G]	0r	2B-y	2d	4b-]
4F	.	.	.	4a
2E	.	2c	2G	1g
1D	.	1d	1A	.
.	.	.	.	2f#i
=36	=36	=36	=36	=36
2C	0r	1e	1c	0g
1c	.	.	.	.
.	.	2.d	1G	.
2B-y	.	.	.	.
.	.	4e	.	.
=37	=37	=37	=37	=37
2A	0r	2f	1r	0r
2B-y	.	2d	.	.
1G	.	2e	2r	.
.	.	[2d	2b-y	.
=38	=38	=38	=38	=38
2F	0r	4d]	2a	2r
.	.	4c	.	.
2.G	.	4B-y	2.b-y	2g
.	.	4A	.	.
.	.	2G	.	2b-y
4F	.	.	4a	.
2E	.	[2c	2g	2cc
=39	=39	=39	=39	=39
1D	0r	4c]	1f	1dd
.	.	4BnXi	.	.
.	.	4Bni	.	.
.	.	4A	.	.
1C	.	2c	2.g	1ee
.	.	[2g	.	.
.	.	.	4a	.
=40	=40	=40	=40	=40
1G	0r	2g]	2b-y	2.dd
.	.	4f	2g	.
.	.	4e	.	4ee
2r	.	2d	2a	2ff
2B-y	.	[2g	2b-y	2dd
=41	=41	=41	=41	=41
2c	0r	2g]	1a	2ee
2d	.	4f	.	2.dd
.	.	4e	.	.
2B-y	.	2f	2r	.
.	.	.	.	4cc
2G	.	[2g	2d	4b-y
.	.	.	.	4a
=42	=42	=42	=42	=42
1c	0r	4g]	4e	2g
.	.	4f	4c	.
.	.	2e	2.g	1cc
1G	.	1d	.	.
.	.	.	4f	.
.	.	.	2g	2bnXi
=43	=43	=43	=43	=43
2r	0r	[0c	2e	2cc
1C	.	.	1g	1ee
2C	.	.	2g	2ee
=44	=44	=44	=44	=44
2C	0r	0c]	2g	2ee
2C	.	.	2g	2ee
1F	.	.	1a	1ff
=45	=45	=45	=45	=45
1C	0r	2r	1g	2.ee
.	.	2G	.	.
.	.	.	.	8ddL
.	.	.	.	8ccJ
2r	.	2B-y	[1G	2dd
[2C	.	2c	.	[2ee-X
=46	=46	=46	=46	=46
2C]	0r	1d	1G]	4ee-]
.	.	.	.	4dd
2BB-y	.	.	.	2dd
1C	.	1e-X	[1gl	1cc
=47	=47	=47	=47	=47
0Gl	0r	0dl	0g]	0b-yl
=48||	=48||	=48||	=48||	=48||
*M2/1	*M2/1	*M2/1	*M2/1	*M2/1
*met(C|)	*met(C|)	*met(C|)	*met(C|)	*met(C|)
!!section: Agnus Dei II
!!!OMD: Agnus Dei II
0r	0r	0r	0r	0cc
=49	=49	=49	=49	=49
0r	0r	0r	0r	1a
.	.	.	.	[1dd
=50	=50	=50	=50	=50
0r	0r	0r	0f	2dd]
.	.	.	.	4cc
.	.	.	.	4b-y
.	.	.	.	2cc
.	.	.	.	[2a
=51	=51	=51	=51	=51
0r	0r	0r	1d	4a]
.	.	.	.	4f
.	.	.	.	1ff
.	.	.	[1a	.
.	.	.	.	4ee
.	.	.	.	4dd
=52	=52	=52	=52	=52
0r	0r	0r	2a]	2.cc
.	.	.	4g	.
.	.	.	4f	4dd
.	.	.	2.g	2ee
.	.	.	.	[2dd
.	.	.	4f	.
=53	=53	=53	=53	=53
0r	0r	0r	2d	4dd]
.	.	.	.	4cc
.	.	.	2.g	4b-y
.	.	.	.	4a
.	.	.	.	2b-y
.	.	.	4f	.
.	.	.	4e	4cc
.	.	.	4d	4b-y
=54	=54	=54	=54	=54
0r	0r	0r	2c	4a
.	.	.	.	4g
.	.	.	2e	1cc
.	.	.	1d	.
.	.	.	.	2bnXi
=55	=55	=55	=55	=55
0r	0r	0r	1c	0cc
.	.	.	2r	.
.	.	.	2f	.
=56	=56	=56	=56	=56
0r	0r	0r	2e	2r
.	.	.	2.f	2cc
.	.	.	.	2a
.	.	.	4e	.
.	.	.	4d	[2dd
.	.	.	4c	.
=57	=57	=57	=57	=57
0r	0r	0r	2B-y	2dd]
.	.	.	2b-y	4cc
.	.	.	.	4b-y
.	.	.	2a	2cc
.	.	.	[2b-y	2dd
=58	=58	=58	=58	=58
0r	0r	0r	2b-]	2g
.	.	.	4a	2.dd
.	.	.	4g	.
.	.	.	2f	.
.	.	.	.	4cc
.	.	.	4g	4b-y
.	.	.	4f	4a
=59	=59	=59	=59	=59
0r	0r	0r	4e	2g
.	.	.	4d	.
.	.	.	1g	2b-y
.	.	.	.	1a
.	.	.	2f#i	.
=60	=60	=60	=60	=60
0r	0r	0r	2g	1g
.	.	.	2c	.
.	.	.	2d	2r
.	.	.	[2c	2g
=61	=61	=61	=61	=61
0r	0r	0r	4c]	2a
.	.	.	4d	.
.	.	.	4e	2.g
.	.	.	4f	.
.	.	.	[1g	.
.	.	.	.	4a
.	.	.	.	4b-y
.	.	.	.	4cc
=62	=62	=62	=62	=62
0r	0r	0r	1g]	2dd
.	.	.	.	2ee
.	.	.	1a	2ff
.	.	.	.	[2ee
=63	=63	=63	=63	=63
0r	0r	0r	2g	4ee]
.	.	.	.	4dd
.	.	.	2a	4cc
.	.	.	.	4b-y
.	.	.	2f	2a
.	.	.	[2d	[2ff
=64	=64	=64	=64	=64
0r	0r	0r	4d]	4ff]
.	.	.	4e	4ee
.	.	.	4f	1dd
.	.	.	4d	.
.	.	.	1e	.
.	.	.	.	2cc#i
=65	=65	=65	=65	=65
0r	0r	0r	1d	[0dd
.	.	.	2r	.
.	.	.	2g	.
=66	=66	=66	=66	=66
0r	0r	0r	2f	0dd]
.	.	.	2.b-y	.
.	.	.	4a	.
.	.	.	[2g	.
=67	=67	=67	=67	=67
0r	0r	0r	2g]	1r
.	.	.	4f	.
.	.	.	4e	.
.	.	.	2d	1dd
.	.	.	2f	.
=68	=68	=68	=68	=68
0r	0r	0r	2e	2cc
.	.	.	4d	2b-y
.	.	.	4e	.
.	.	.	4f	2a
.	.	.	4g	.
.	.	.	[2a	[2cc
=69	=69	=69	=69	=69
0r	0r	0r	4a]	4cc]
.	.	.	4g	4b-y
.	.	.	1g	4a
.	.	.	.	4g
.	.	.	.	1a
.	.	.	2f#i	.
=70	=70	=70	=70	=70
0r	0r	0r	0g	2g
.	.	.	.	2dd
.	.	.	.	2b-y
.	.	.	.	[2ee-i
=71	=71	=71	=71	=71
0r	0r	0r	1r	4ee-]
.	.	.	.	4dd
.	.	.	.	1dd
.	.	.	1g	.
.	.	.	.	4cc
.	.	.	.	4b-y
=72	=72	=72	=72	=72
0r	0r	0r	2f	2a
.	.	.	2e	4g
.	.	.	.	4a
.	.	.	2d	4b-y
.	.	.	.	4cc
.	.	.	[2f	[2dd
=73	=73	=73	=73	=73
0r	0r	0r	4f]	4dd]
.	.	.	4e	4cc
.	.	.	4d	1cc
.	.	.	4c	.
.	.	.	1d	.
.	.	.	.	2bnXi
=74	=74	=74	=74	=74
0r	0r	0r	0cl	0ccl
=75||	=75||	=75||	=75||	=75||
*M2/1	*M2/1	*M2/1	*M2/1	*M2/1
*met(C|)	*met(C|)	*met(C|)	*met(C|)	*met(C|)
!!section: Agnus Dei III
!!!OMD: Agnus Dei III
1c	1r	1r	2r	0r
.	.	.	2g	.
2.F	1f	[1c	2a	.
.	.	.	[2cc	.
4G	.	.	.	.
=76	=76	=76	=76	=76
2A	2e	1c]	4cc]	0r
.	.	.	4b-y	.
2F	2.f	.	1a	.
2.B-y	.	1d	.	.
.	4e	.	.	.
.	[2d	.	2g	.
4A	.	.	.	.
=77	=77	=77	=77	=77
1F	4d]	1.f	1a	2r
.	4c	.	.	.
.	2A	.	.	2cc
2.BB-y	2.B-y	.	1d	2dd
.	.	2d	.	[2ff
4C	4A	.	.	.
=78	=78	=78	=78	=78
1D	2.F	1f	0a	4ff]
.	.	.	.	4ee
.	.	.	.	1dd
.	4G	.	.	.
1r	2A	1e	.	.
.	2A	.	.	2cc#i
=79	=79	=79	=79	=79
1r	2B-y	1.d	2r	2dd
.	2.d	.	2f	2a
[1G	.	.	2g	2.b-y
.	4c	.	.	.
.	4B-y	2d	[2b-y	.
.	4A	.	.	4cc
=80	=80	=80	=80	=80
2G]	2B-y	2d	4b-]	2dd
.	.	.	4a	.
2C	2c	2.e	1g	1cc
1c	1A	.	.	.
.	.	4d	.	.
.	.	[2c	2f#i	2a
=81	=81	=81	=81	=81
1d	1G	2c]	[0g	4b-y
.	.	.	.	4a
.	.	2BnXi	.	4g
.	.	.	.	4f
2c	2r	1c	.	2.e
[2C	2G	.	.	.
.	.	.	.	4d
=82	=82	=82	=82	=82
4C]	1c	1G	0g]	1e
4D	.	.	.	.
4E	.	.	.	.
4F	.	.	.	.
1G	2B-y	2r	.	1d
.	4G	[2G	.	.
.	4A	.	.	.
=83	=83	=83	=83	=83
2r	4B-y	4G]	2r	1dd
.	4c	4A	.	.
1G	2d	4B-y	1g	.
.	.	4c	.	.
.	1G	4d	.	2b-y
.	.	4G	.	.
2C	.	[2g	2e	2cc
=84	=84	=84	=84	=84
1D	1d	2g]	2f	1a
.	.	2f#i	1d	.
2G	2B-y	1g	.	2b-y
2C	[2c	.	[2e	[2g
=85	=85	=85	=85	=85
1c	2c]	2e	2e]	2g]
.	2F	2f	2c	1cc
1r	[1G	1d	2.g	.
.	.	.	.	2bnXi
.	.	.	4f	.
=86	=86	=86	=86	=86
1C	1G]	1c	4e	0cc
.	.	.	4d	.
.	.	.	2e	.
1F	2.A	2r	2c	.
.	.	2c	[2f	.
.	4F	.	.	.
=87	=87	=87	=87	=87
1C	2G	2c	2f]	2r
.	2A	2c	2e	2cc
1r	1B-y	1f	2.d	2dd
.	.	.	.	[2ff
.	.	.	8cL	.
.	.	.	8B-yJ	.
=88	=88	=88	=88	=88
1F	1A	1a	2c	4ff]
.	.	.	.	4ee
.	.	.	1d	4dd
.	.	.	.	4cc
2G	1r	2g	.	2b-y
2A	.	[2f	2c	[2a
=89	=89	=89	=89	=89
1B-y	2r	2f]	1d	2a]
.	2G	4e	.	2g
.	.	4d	.	.
2A	2.c	2e	2r	1a
2F	.	2f	[2a	.
.	4A	.	.	.
=90	=90	=90	=90	=90
1G	1B-y	2.d	2a]	1dd
.	.	.	2g	.
.	.	4e	.	.
1r	2A	2f	2a	2cc
.	2G	[2g	2d	2b-y
=91	=91	=91	=91	=91
0r	1c	2g]	2.e	1g
.	.	4f	.	.
.	.	4e	4f	.
.	2B-y	2d	2g	2r
.	2A	[2e	[2a	2cc
=92	=92	=92	=92	=92
1r	2c	4e]	2a]	2cc
.	.	4c	.	.
.	2d	1f	4g	2b-y
.	.	.	4f	.
2r	1c	.	1g	1cc
2C	.	2e	.	.
=93	=93	=93	=93	=93
2D	1F	0f	2r	2a
2BB-y	.	.	2.b-y	1dd
1F	2r	.	.	.
.	.	.	4a	.
.	2A	.	[2a	2cc
=94	=94	=94	=94	=94
1G	4B-y	2r	2a]	1b-y
.	4c	.	.	.
.	4d	2d	2g	.
.	4B-y	.	.	.
2F	2c	1f	1a	2.a
2D	2d	.	.	.
.	.	.	.	4b-y
=95	=95	=95	=95	=95
1A	2c	2e	2r	1cc
.	1f	2c	2a	.
2.B-y	.	[1d	2a	1r
.	2d	.	2g	.
4A	.	.	.	.
=96	=96	=96	=96	=96
1F	2.f	2d]	1a	0r
.	.	2c	.	.
.	4e	.	.	.
2r	[1d	2.B-y	2f	.
[2G	.	.	[2b-y	.
.	.	8AL	.	.
.	.	8GJ	.	.
=97	=97	=97	=97	=97
2G]	1d]	4B-y	2b-]	0r
.	.	4c	.	.
2F	.	1d	2a	.
1E	1G	.	2.g	.
.	.	2c#i	.	.
.	.	.	8fL	.
.	.	.	8eJ	.
=98	=98	=98	=98	=98
1D	1A	0d	4f	1a
.	.	.	4g	.
.	.	.	1a	.
1G	2r	.	.	1b-y
.	[2d	.	2g	.
=99	=99	=99	=99	=99
1F	2d]	0f	1a	2a
.	2c	.	.	2cc
2.BB-y	1B-y	.	1d	2dd
.	.	.	.	[2ff
4C	.	.	.	.
=100	=100	=100	=100	=100
1D	0A	1f	2r	4ff]
.	.	.	.	4ee
.	.	.	2a	1dd
1r	.	1e	2.a	.
.	.	.	.	2cc
.	.	.	4g	.
=101	=101	=101	=101	=101
1r	2.B-y	2d	4f	1b-y
.	.	.	4e	.
.	.	2.f	2.d	.
.	4A	.	.	.
2r	2F	.	.	1a
.	.	4e	4c	.
[2F	[2A	2c	[2f	.
=102	=102	=102	=102	=102
2F]	2A]	2d	4f]	2r
.	.	.	4d	.
2E	2G	1c	2g	2cc
1D	2A	.	1f	4dd
.	.	.	.	4ee
.	2F	2BnXi	.	4ff
.	.	.	.	4dd
=103	=103	=103	=103	=103
1C	2G	2c	2r	2.ee
.	1c	2.e	2.g	.
.	.	.	.	8ddL
.	.	.	.	8ccJ
1r	.	.	.	2ee
.	.	4f	4a	.
.	2B-y	2g	4b-y	[2dd
.	.	.	4g	.
=104	=104	=104	=104	=104
0r	1A	4f	2a	4dd]
.	.	4e	.	4cc
.	.	4d	2f	1cc
.	.	4c	.	.
.	1G	1d	2.g	.
.	.	.	.	2bnXi
.	.	.	4f	.
=105	=105	=105	=105	=105
0r	2r	1c	4e	1cc
.	.	.	4d	.
.	1g	.	2e	.
.	.	2B-y	2d	2r
.	2f	2A	2c	2cc
=106	=106	=106	=106	=106
1C	1e	2G	[0g	1cc
.	.	2.c	.	.
1G	1d	.	.	1dd
.	.	4BnXi	.	.
.	.	4Bni	.	.
.	.	8AL	.	.
.	.	8BniJ	.	.
=107	=107	=107	=107	=107
1C	2.c	0c	1g]	1ee
.	4B-y	.	.	.
2.F	4A	.	1r	2r
.	4G	.	.	.
.	2A	.	.	2cc
4E	.	.	.	.
=108	=108	=108	=108	=108
4D	2B-y	2r	1r	2ff
4C	.	.	.	.
1c	2c	2c	.	2ee
.	1G	1d	2r	1dd
2BnXi	.	.	[2g	.
=109	=109	=109	=109	=109
2c	0r	1e	2g]	1cc
2A	.	.	2c	.
2d	.	2f	2d	2r
2c	.	[2e	2e	[2a
=110	=110	=110	=110	=110
1B-y	2r	4e]	2f	2a]
.	.	4d	.	.
.	2G	1d	2g	2g
1A	2c	.	1e	1a
.	2A	2c	.	.
=111	=111	=111	=111	=111
2r	1B-y	[0d	1d	2f
1G	.	.	.	1b-y
.	2G	.	1r	.
2F	2A	.	.	2a
=112	=112	=112	=112	=112
1G	1B-y	0d]	0r	1g
[1D	1A	.	.	[1f
=113	=113	=113	=113	=113
1D]	2r	0A	1d	1f]
.	1d	.	.	.
1r	.	.	1e	2r
.	2c	.	.	[2a
=114	=114	=114	=114	=114
0r	1d	1r	1f	2a]
.	.	.	.	2a
.	1G	2r	1g	1b-y
.	.	[2d	.	.
=115	=115	=115	=115	=115
1r	1A	2d]	2e	1a
.	.	2c	1f	.
2r	1B-y	2.d	.	2f
[2G	.	.	4e	2g
.	.	8cL	4d	.
.	.	8B-yJ	.	.
=116	=116	=116	=116	=116
2G]	1A	2c	2e	1a
2F#i	.	1d	2A	.
1G	2G	.	2.B-y	1d
.	[2g	2G	.	.
.	.	.	4c	.
=117	=117	=117	=117	=117
1D	2g]	1A	2d	2r
.	2f#i	.	2a	1dd
1G	[1g	2G	1bnX	.
.	.	2d	.	2dd
=118	=118	=118	=118	=118
1C	2g]	2c	1cc	1ee
.	2c	1g	.	.
1r	1d	.	2a	1dd
.	.	2f	[2b-y	.
=119	=119	=119	=119	=119
2r	1e-X	1g	2b-]	2b-y
1c	.	.	4a	2cc
.	.	.	4g	.
.	1d	1r	2a	1dd
2B-y	.	.	2d	.
=120	=120	=120	=120	=120
2c	1r	0r	2e	2g
2G	.	.	1g	2b-y
1d	2r	.	.	1a
.	[2d	.	2f	.
=121	=121	=121	=121	=121
1G	2d]	1d	2.b-y	1g
.	2B-y	.	.	.
.	.	.	4g	.
1r	2c	2e	2g	2.cc
.	2A	[2f	[2a	.
.	.	.	.	4b-y
=122	=122	=122	=122	=122
2r	1d	2f]	2a]	4a
.	.	.	.	4g
1G	.	2B-y	2.d	1b-y
.	2G	2.d	.	.
.	.	.	4e	.
2F	2A	.	2f	[2a
.	.	4c	.	.
=123	=123	=123	=123	=123
1G	2B-y	2B-y	1d	4a]
.	.	.	.	4g
.	2.d	4A	.	1g
.	.	4G	.	.
1D	.	2A	1r	.
.	4c	.	.	.
.	2A	2d	.	2f#i
=124	=124	=124	=124	=124
1G	2B-y	2d	2r	0g
.	1G	2B-y	2d	.
1C	.	2.c	2.e	.
.	[2c	.	.	.
.	.	4d	4f	.
=125	=125	=125	=125	=125
1r	2c]	2e	2g	2r
.	2F	2f	2a	2cc
2r	1G	1d	1g	2cc
2G	.	.	.	2bnXi
=126	=126	=126	=126	=126
2.A	2r	2r	1e	2.cc
.	1c	2a	.	.
4B-y	.	.	.	4dd
2c	.	2g	1r	2ee
2A	2c	2a	.	2ff
=127	=127	=127	=127	=127
2.B-y	2.d	0f	2r	2dd
.	.	.	2f	1ff
8AL	8cL	.	.	.
8GJ	8B-yJ	.	.	.
2F	2c	.	2a	.
2B-y	2d	.	2b-y	4ee
.	.	.	.	4dd
=128	=128	=128	=128	=128
2A	1c	2r	2cc	4ee
.	.	.	.	4cc
2F	.	2f	2a	2.ff
1B-y	[1d	2f	2.b-y	.
.	.	.	.	4ee
.	.	[2f	.	4dd
.	.	.	8aL	4cc
.	.	.	8gJ	.
=129	=129	=129	=129	=129
2.B-y	1d]	2f]	1f	1.dd
.	.	2d	.	.
4A	.	.	.	.
1G	2r	1g	1b-y	.
.	2G	.	.	4cc
.	.	.	.	4b-y
=130	=130	=130	=130	=130
0r	2A	2f	2a	2cc
.	2B-y	2d	1g	2dd
.	2.c	2e	.	1g
.	.	2e	2c	.
.	8B-yL	.	.	.
.	8AJ	.	.	.
=131	=131	=131	=131	=131
0r	1G	2.g	2d	2r
.	.	.	2e	2g
.	.	8fL	.	.
.	.	8eJ	.	.
.	2r	1d	2.f	2a
.	2d	.	.	2b-y
.	.	.	8eL	.
.	.	.	8dJ	.
=132	=132	=132	=132	=132
2r	2e	0r	4c	2cc
.	.	.	4B-y	.
2B-y	2f	.	1b-y	2.dd
2G	2.g	.	.	.
.	.	.	.	4cc
2c	.	.	2g	2ee
.	8fL	.	.	.
.	8eJ	.	.	.
=133	=133	=133	=133	=133
2B-y	2f	1r	2b-y	2dd
2c	2e	.	2a	1cc
1G	1d	2r	2.g	.
.	.	2G	.	2bnXi
.	.	.	4f	.
=134	=134	=134	=134	=134
1r	[0cl	2A	4e	2cc
.	.	.	4d	.
.	.	2.c	2e	2g
1F	.	.	2A	1a
.	.	4B-y	.	.
.	.	[2A	[2f	.
=135	=135	=135	=135	=135
1C	0c_	2A]	2f]	1.cc
.	.	2G	2e	.
[1F	.	2.A	2f	.
.	.	.	[2a	2cc
.	.	4G	.	.
=136	=136	=136	=136	=136
2F]	0c_	2F	2a]	2.cc
2E	.	2G	2g	.
.	.	.	.	4b-y
1F	.	1A	1f	2a
.	.	.	.	2f
=137	=137	=137	=137	=137
0Cl	0c]	0Gl	0el	0gl
==	==	==	==	==
*-	*-	*-	*-	*-
!!!system-decoration: s1,s2,s3,s4,s5
!!!RDF**kern: i = editorial accidental
!!!RDF**kern: l = terminal long
!!!ENC: Maura Sugg
!!!END: 2026/3/29
!!!EED: Benjamin Ory
!!!EEV: 2026/04/22
!!!YEC: Copyright 2026 Irene Holzer, All Rights Reserved
!!!ONB: Translated from MusicXML on 2026/04/22
!!!verovio: header encoded
!!!header-left: Edited by Irene Holzer\n
!!!header-right:
!!!header-center: